X: 145
T: Yuer lang
L: 1/8
M: 2/4
K: Eb
c2c2 [I:setbarnb 1]| 
z e c B | 
B GB2- | 
B2G B | 
c2e2 | 
zB2G | 
B GF2- | 
F2c2 | 
c2z e | 
c B B G | 
B4 | 
G Bc2 | 
e2z B- | 
B G B G | 
F4 | 
B3G | 
F G F E | 
F DC2 | 
zC2E | 
B GF2 | 
zC2E | 
B GF2 | 
zB2C | 
E F D C | 
B,4 |]

@@@ Tune index: 9019
